X:1
T:St. John Damascene, 76.76 D
T:St. John Damascene, 76.76 D
T:Arthur Henry Brown, 1861
T:Public Domain Courtesy of the Cyber Hymnal™
C:Arthur Henry Brown, 1861
Z:Public Domain
Z:Courtesy of the Cyber Hymnal™
%%score ( 1 2 ) ( 3 4 )
L:1/8
Q:1/4=115
M:4/4
K:Ab
V:1 treble 
V:2 treble 
V:3 bass 
V:4 bass 
V:1
 [CE]2 [DF]2 [EA]2 [DA]2 | [CA]2 [EB]2 [Ec]4 | [EA]2 [GB]2 [Ac]2 [Ad]2 | e4 [Ae]4 | %4
 [CE]2 [DF]2 [EA]2 [DA]2 | [CA]2 [EB]2 [Ec]4 | [Ee]2 [Ec]2 [=DB]2 E2 | A4 [EG]4 | %8
 [EG]2 [=DG]2 [EG]2 [DF]2 | [CE]2 =D2 [CE]4 | [EA]2 [EG]2 [EA]2 [=Dc]2 | [Ec]4 [EB]4 | %12
 [Dd]2 [Ec]2 f2 [Ae]2 | [EG]2 A2 [GB]4 | [Gc]2 [FA]2 [Fc]2 [FB]2 | (A2 z [CA]4) x |] %16
V:2
 x8 | x8 | x8 | (GA B2) x4 | x8 | x8 | x6 E2 | (E2 =D2) x4 | x8 | x2 (C=B,) x4 | x8 | x8 | %12
 x4 (FG) x2 | x2 A2 x4 | x8 | E3 (G2 D) x2 |] %16
V:3
 [A,,A,]2 [D,A,]2 [C,A,]2 [F,A,]2 | [E,A,]2 [E,G,]2 A,4 | [CE]2 [B,D]2 ([A,C][G,B,]) [F,A,]2 | %3
 (B,C) D2 [A,C]4 | [A,,A,]2 [D,A,]2 [C,A,]2 [F,A,]2 | [E,A,]2 [E,G,]2 [A,,A,]4 | %6
 [G,,B,]2 [A,,A,]2 [B,,F,]2 [C,E,]2 | (F,2 B,2) [E,B,]4 | [C,C]2 [=B,,G,]2 [C,E,]2 [=D,F,]2 | %9
 [E,G,]2 [F,A,]G, [C,G,]4 | C2 [B,D]2 [A,C]2 [F,A,]2 | [E,A,]4 [E,G,]4 | %12
 [F,A,]2 [E,A,]2 (A,B,) [C,C]2 | [B,,D]2 [A,,C]2 [E,E]4 | [=E,C]2 [F,C]2 [D,F]2 [D,D]2 | %15
 (C2 B,2) [A,,A,]4 |] %16
V:4
 x8 | x4 A,4 | x8 | E,4 x4 | x8 | x8 | x8 | B,,4 x4 | x8 | x3 G, x4 | C2 x6 | x8 | x4 D,2 x2 | x8 | %14
 x8 | E,4 x4 |] %16

